X:1
T:Amour a faict ce que
T:Amour a faict ce que
T:Thomas Crecquillon
C:Thomas Crecquillon
%%score [ 1 2 [ 3 4 ] ]
L:1/8
Q:1/4=80
M:2/2
K:C
V:1 treble nm="Superius" snm="S"
V:2 treble nm="Altus" snm="A"
V:3 treble-8 nm="Tenor 1" snm="T 1"
V:4 treble-8 nm="Tenor 2" snm="T 2"
V:1
 z8 | z8 | A4 c2 c2 | dc de f2 ed | e6 c2 | d2 e2 f2 e2- | ed d4 c2 | d8 | z2 e2 e2 e2 | %9
w: ||A- mour a|faict _ _ _ _ ce _|que ne|puis def- fai- *||re,|quant de noz|
 d2 d2 f4- | f2 f2 e3 d/c/ | d2 d2 c4 | z2 AB cd e2- | e2 d4 cB | c2 A2 c3 B | A2 G2 F2 E2 | %16
w: cueurs il a|_ fait u- * *|* ni- on,|c'est _ _ _ main-|* te- * *|nant, à Dieu de|le par- fai- *|
 A4 G2 G2 | c3 B A2 G2 | A2 B3 A A2- | A2 G2 A4- | A8 |: z2 e2 c2 A2 | e4 f4 | e2 f4 ed | %24
w: * re, à|Dieu de le par-|fai- * * *|* * re,|_|et le gar-|der de|se- pa- ra- *|
 f2 e4 d2- | d2 c4 B2- | B2 A4 G2 | A3 B c2 B2- | BA A4 G2 | A8- |1[M:2/4] A4 :|2 %31
w: ||||* * * ti-|on,|_|
[M:2/2] BA A4 G2 || A8 |] %33
w: (ra)- * * ti-|on.|
V:2
 E4 F2 F2 |"^b" GF GA B2 A2 | z2 A4 A2 | F3 G A4- | A2 E2 G2 A2 | G4 F2 B2 | A2 G2 A4- | A4 z2 A2 | %8
w: A- mour a|faict _ _ _ _ _|ce que|_ ne puis|_ def- fai- *||* * re,|_ quant|
 A2 A2 G2 G2 | B2 B2 A3 G | AF B3 A A2- | A2 G2 A2 E2- | E2 E2 A4 | A8 | z2 E2 E2 F2 | %15
w: de noz cueurs il|a fait u- *||* ni- on, c'est|_ main- te-|nant|à Dieu de|
 E3 D C2 B,2 | C2 D2 E4- | E4 z2 E2 | F2 G2 D4 | E2 E2 C2 A,2 | E4 F4 |: E2 A3 G F2 | E4 z2 A2- | %23
w: le par- fai- *|* * re,|_ de|le par- fai-|re et le gar-|||der- et|
 A2 A2 F2 G2 |"^b" A2 G2 B4 | A2 A3 G G2- | GF F3 E E2- | E2 D2 E2 D2 | F4 E2 E2 | C2 A,2 E4 |1 %30
w: _ le- gar- *|* der de|se- pa- * ra-||* * * ti-|ti- on, et|le gar- *|
[M:2/4] F4 :|2[M:2/2] F4 E4 || E8 |] %33
w: |ti- *|on.|
V:3
 z4 A4 | c2 c2 dc de | f4 e2 f2- | fe d4 cB | c3 d e2 f2- | f2 e2 d2 g2 | f2 ed e4 | d4 z2 A2 | %8
w: A-|mour a faict _ _ _|_ ce que|_ ne puis _ _|_ def- fai- *|||re, quant|
 AB cd edef | g2 g2 f4 | z2 e2 g2 e2 | f2 d2 e2 AB | cB cd e2 c2 | f4 e4- | e4 z4 | z8 | %16
w: de _ _ _ _ _ _ _|_ noz cueurs|a faict u-|ni- * on, c'est _|_ _ _ _ _ main-|te- nant|_||
 z2 A2 c2 B2 | AB cd e4 | c2 d3 cBA | B4 A2 cB | cd e4 d2- |: d2 c2 A2 d2- | d2 c2 d4 | z2 c2 d4 | %24
w: à Dieu de|le _ _ _ _|par- fai- * * *|* re, et _|_ _ _ le|_ gar- * *|* * der|de se-|
 c2 e2 f2 g2 | e4 e2 e2- | ed c2 B2 c2- | cB A2 G2 B2 | c2 d2 B4 | A2 cB cd e2- |1[M:2/4] e2 d2 :|2 %31
w: pa- ra- * ti-|on, de se|_ pa- ra- * *||* * ti-|on, et _ _ _ _|_ le|
[M:2/2] c2 d2 B4 || A8 |] %33
w: (ra) _ ti-|on.|
V:4
 A4 D2 F2 | E4 D2 D2 |"^#" DEFG A2 F2 |"^b" B4 A4- | A4 z2 A2 |"^b" B2 c2 d2 G2 |"^b" A2 B2 A4 | %7
w: A- mour a|faict ce que|ne _ _ _ puis def-|fai- re,|_ ce|que ne puis def-|fai- * re,|
 z2 D2 DEFG | AG AB c2 c2 | GA Bc d2 d2 | d2 d2 c4 | B4 A4 | z2 A4 A2 | D4 A4- | A4 z2 A2 | %15
w: quant de _ _ _|_ _ _ _ _ noz|cueurs _ _ _ _ il|a faict u-|ni- on,|c'est main-|te- nant|_ à|
 c3 B A2 G2 | F4 E4 | z2 A2 c3 B | A2 G2 F4 | E4 z4 | A4 F2 D2 |: A4 z4 | A4 F2 D2 | A4 _B4 | %24
w: Dieu de le par-|fai- re,|de le par-|fai- * *|re,|et le gar-|der,|et le gar-|der de|
"^b" A2 c2 B2 G2 | A4 E4 | C2 A,2 E4 |"^#" F4 E2 G2 | F2 D2 E4 | z4 A4 |1[M:2/4] F2 D2 :|2 %31
w: se- pa- ra- ti-|on, de|se- pa- ra-||* ti- on,|et|le gar-|
[M:2/2] F2 D2 E4 || A,8 |] %33
w: (ra) _ ti-|on.|

